static/assets/img/icons/theme/text/font.svg

<svg height="24" viewBox="0 0 24 24" width="24" xmlns="http://www.w3.org/2000/svg"><g fill="none" fill-rule="evenodd"><path d="m0 0h24v24h-24z" opacity="0"/><g fill="#000"><path d="m.18 19 6.92-14.36 6.92 14.36h-1.96l-1.76-3.72h-6.4l-1.76 3.72zm6.92-10.48-2.4 5.08h4.8z"/><path d="m21.34 19v-1c-.84.76-1.96 1.16-3.18 1.16-2.94 0-5.1-2.26-5.1-5.16s2.16-5.16 5.1-5.16c1.22 0 2.34.4 3.18 1.16v-1h1.72v10zm-3.14-1.46c1.44 0 2.56-.68 3.14-1.62v-3.84c-.58-.94-1.7-1.62-3.14-1.62-1.96 0-3.36 1.56-3.36 3.54s1.4 3.54 3.36 3.54z" opacity=".3"/></g></g></svg>

<svg width="24px" height="24px" viewBox="0 0 24 24" version="1.1" xmlns="http://www.w3.org/2000/svg" xmlns:xlink="http://www.w3.org/1999/xlink">
    <title>Icon For Font</title>
    <g stroke="none" stroke-width="1" fill="none" fill-rule="evenodd">
        <rect opacity="0" x="0" y="0" width="24" height="24"></rect>
        <path d="M0.18,19 L7.1,4.64 L14.02,19 L12.06,19 L10.3,15.28 L3.9,15.28 L2.14,19 L0.18,19 Z M7.1,8.52 L4.7,13.6 L9.5,13.6 L7.1,8.52 Z" fill="#000000"></path>
        <path d="M21.34,19 L21.34,18 C20.5,18.76 19.38,19.16 18.16,19.16 C15.22,19.16 13.06,16.9 13.06,14 C13.06,11.1 15.22,8.84 18.16,8.84 C19.38,8.84 20.5,9.24 21.34,10 L21.34,9 L23.06,9 L23.06,19 L21.34,19 Z M18.2,17.54 C19.64,17.54 20.76,16.86 21.34,15.92 L21.34,12.08 C20.76,11.14 19.64,10.46 18.2,10.46 C16.24,10.46 14.84,12.02 14.84,14 C14.84,15.98 16.24,17.54 18.2,17.54 Z" fill="#000000" opacity="0.3"></path>
    </g>
</svg>
